!!!OTL: 29. Schlaf, Kindlein, feste!
!!!ARE: Europa, Mitteleuropa, Deutschland
!!!SCT: K0029
!!!TXL: @@DE
!!!YEM: Copyright 1995, estate of Helmut Schaffrath.
**kern	**text
*M2/4	*
*clefG2	*
*k[b-]	*
*F:	*
=1	=1
{4a	Schlaf,
8g	Kind-
8g	-lein,
=2	=2
4f	fe-
8c}	-ſte!
{8c	wir
=3	=3
8a	kriegen
8a	.
8g	frem-
8g	-de
=4	=4
4f	Gä-
8c}	-ſte;
{8f	die
=5	=5
8a	Gä-
8a	-ſte
8a	die
8cc	da
=6	=6
8b-	kom-
8a	-men
8g}	drein,
{8f	das
=7	=7
8a	ſind
8a	die
8a	lie-
8cc	-ben
=8	=8
8b-	En-
8a	-gelein.
4g}	.
=9	=9
{4a	Schlaf,
8g	Kindlein,
8g	.
=10	=10
4f	fe-
4c}	-ſte!
==	==
!!!AGN: Kinder -, Wiegen - Lied
!!!ONB: ESAC (Essen Associative Code) Database: KINDER
!!!AMT: simple duple
!!!AIN: vox
!!!EED: Helmut Schaffrath
!!!EEV: 1.0
!!Volksweise. Erk, Germania Nr. 319.
!!@@COMMENT:"Derſelbe Text auch bei Simrock 225. Dittmar 54. Vergl. oben Nr. 27, Str. 3."
!!@@END:
!!!GTL: I. Wiegenlieder.
!!!URL-scan: https://archive.org/details/DeutschesKinderliedUndKinderspiel/page/6/mode/1up
!!!ENC: Anna Maria Matuszewska
!!!EEV: 2024/29/08
*-	*-
